X: 41686
T: Usual Suspects, The
R: jig
M: 6/8
K: Gmajor
~G3 dGG dge dBd|edB AGD EGB A3|
~G3 dGG dge dBd|edB AGD EGG G3:|
g|edB dgb age ege|dBG AGE DGB A3|
GED EDB, G,GD EDB,|G,DE GAB ABA G3|

